!!!OTL: Der Maedchenmoerder (Halewijn - Ulinger).
!!!OTL-incipit: Als ich ein kleines Maedchen war,
!!!ARE: Europa, Mitteleuropa, Deutschland / France, Lothringen
!!!YOR: 2, S. 100
!!    1928 gedruckt in Heidelberg
!!!SCT: Q0041L
!!!TXL: @@DE
!!!YEM: Copyright 1995, estate of Helmut Schaffrath.
**kern	**text
*ICvox	*
*M3/4	*
*k[]	*
*a:	*
=1	=1
!LO:TX:a:t=Pinck 2 (Lothringen 1928)	!
{4ee	Als
4ee	ich
4dd	ein
=2:	=2:
(4.cc	klei-
8dd)	.
4ee	-nes
=3:	=3:
4ee	Mädchen
8eeL	.
8ddJ	.
4cc;}	war,
=4:	=4:
{4ee	ſtirbt
4dd	mir
4dd	mein
=5:	=5:
4.a	Vater
8a	.
4dd	und
=6:	=6:
(8ccL	Mut-
8bJ	.
4a)	.
4g;}	-ter,
=7:	=7:
{4g	ſtirbt
4cc	mir
4dd	mein
=8:	=8:
4.ee	Vater
8b	.
4dd	und
=9:	=9:
(4cc	Mut-
4b)	.
4a}	-ter.
==	==
!!!Ag: Ballade, Verfuehrung, Mord, Mordversuch bzw. Rache
!! "Loser Zusammenhang zur Ballade"
!!!ONB: ESAC (Essen Associative Code) Database: BALLADE
!!!AMT: simple triple
!!!AIN: vox
!!!EED: Helmut Schaffrath
!!!EEV: 1.0
!!!source: Deutsche Volkslieder mit ihren Melodien. Herausgegeben vom Deutschen Volksliedarchiv. Zweiter Band Balladen. Berlin 1939.
!!!page: 100
!!!ENC: Anna Maria Matuszewska
!!!EEV: 2025/02/17
*-	*-
